X:53
T: The Musical Priest
T: An Sagart Ceolmhar, The New Bridge of Erin
R: single reel
M: C|
L: 1/8
K: Bmin
   BA | "Bm" FBBA BABd | "A" cBAf ecBA | "Bm" FBBA BABd | "A" cBAc "Bm" B2 :|
|: Bc | "D" d2dc dfed  | "A" c/B/A eA fAec | "Bm" dcBc defb | "A" afec "Bm" B2 :|
|: Bc | "Bm" dB B/B/B bafb | "A" afec ABce | "Bm" dB B/B/B bafb | "A" afec "Bm" B2 |
   Bc | "Bm" dB B/B/B bafb | "F#m" afec ABce | "Em" dcBc "Em/D" defb | "F#m" afec "Bm" B2 :|

